X:692
T: DER KAISER UND DER KOENIG
N: E2119
O: Europa, Mitteleuropa, Deutschland, Hessen, Odenwald; Franken
R: geistlich, Heiligen - Lied, Legende
M: 4/4
L: 1/8
K: G
D2 | G3BA2G2 | F2A2z2
F2 | E3AA2GE | D4z2
GA | B2B2A2Bd | dcB2z2
BA | G3BBAA2 | G4z2

@@@ Tune index: 5376
